samples/MobileSandbox.Browser/Logo.svg

<svg width="35" height="35" viewBox="0 0 35 35" fill="none" xmlns="http://www.w3.org/2000/svg">
<path d="M30.4661 34.928C30.5364 34.928 30.6052 34.928 30.6754 34.928C32.8596 34.928 34.654 33.2918 34.9053 31.1752L34.9356 16.9955C34.6872 7.56697 26.9662 0 17.4777 0C7.83263 0 0.0137329 7.8189 0.0137329 17.464C0.0137329 27.0059 7.66618 34.7631 17.1687 34.928H30.4661Z" fill="white"/>
<path fill-rule="evenodd" clip-rule="evenodd" d="M17.5239 5.948C12.0268 5.948 7.42967 9.80117 6.286 14.954C7.38092 15.2609 8.18385 16.2664 8.18385 17.4593C8.18385 18.6523 7.38092 19.6577 6.286 19.9647C7.42966 25.1175 12.0268 28.9706 17.5239 28.9706C19.525 28.9706 21.4068 28.4601 23.0462 27.562V28.8927H29.0352V17.9365C29.0407 17.7908 29.0352 17.6063 29.0352 17.4593C29.0352 11.1018 23.8814 5.948 17.5239 5.948ZM12.0098 17.4593C12.0098 14.414 14.4786 11.9452 17.5239 11.9452C20.5693 11.9452 23.038 14.414 23.038 17.4593C23.038 20.5047 20.5693 22.9734 17.5239 22.9734C14.4786 22.9734 12.0098 20.5047 12.0098 17.4593Z" fill="#8B44AC"/>
<path d="M7.36841 17.4517C7.36841 18.4691 6.54368 19.2938 5.52631 19.2938C4.50894 19.2938 3.6842 18.4691 3.6842 17.4517C3.6842 16.4343 4.50894 15.6096 5.52631 15.6096C6.54368 15.6096 7.36841 16.4343 7.36841 17.4517Z" fill="#8B44AC"/>
</svg>

<svg viewBox="0 0 35 35" xmlns="http://www.w3.org/2000/svg">
    <path d="M30.466 34.928h.21a4.256 4.256 0 0 0 4.23-3.753l.03-14.18C34.686 7.567 26.965 0 17.476 0 7.832 0 .014 7.82.014 17.463c0 9.542 7.652 17.3 17.155 17.464h13.297z" fill="#fff"/>
    <path d="M17.524 5.948c-5.497 0-10.094 3.853-11.238 9.006a2.603 2.603 0 0 1 0 5.01c1.144 5.154 5.74 9.007 11.238 9.007 2.001 0 3.883-.51 5.522-1.409v1.33h5.99V17.938c.005-.146 0-.33 0-.477 0-6.358-5.154-11.511-11.512-11.511zM12.01 17.459a5.514 5.514 0 1 1 11.028 0 5.514 5.514 0 0 1-11.028 0z" clip-rule="evenodd" fill="#8B44AC" fill-rule="evenodd"/>
    <path d="M7.368 17.452a1.842 1.842 0 1 1-3.684 0 1.842 1.842 0 0 1 3.684 0z" fill="#8B44AC"/>
</svg>
